img/phone-black.svg

<svg width="29" height="28" viewBox="0 0 29 28" fill="none" xmlns="http://www.w3.org/2000/svg">
<path d="M17.0677 1.50012C19.7257 1.76955 22.2084 2.90366 24.1054 4.71489C26.0024 6.52611 27.1999 8.90597 27.5 11.4609M17.0677 6.51813C18.3503 6.76143 19.5272 7.36997 20.4457 8.26479C21.3642 9.1596 21.9819 10.2994 22.2187 11.5361M27.4348 20.2173V23.9808C27.4363 24.3302 27.3619 24.676 27.2164 24.9961C27.0709 25.3163 26.8575 25.6036 26.5899 25.8398C26.3223 26.076 26.0063 26.2558 25.6623 26.3678C25.3183 26.4797 24.9537 26.5213 24.592 26.4898C20.5793 26.0704 16.7248 24.7513 13.3382 22.6385C10.1874 20.7124 7.5161 18.1426 5.51397 15.1115C3.31012 11.8387 1.93862 8.1126 1.51058 4.23494C1.478 3.88803 1.52085 3.53839 1.63642 3.20828C1.752 2.87818 1.93775 2.57484 2.18186 2.31758C2.42597 2.06032 2.72308 1.85478 3.05429 1.71404C3.3855 1.5733 3.74354 1.50045 4.10561 1.50012H8.01772C8.65058 1.49413 9.2641 1.70972 9.74395 2.10671C10.2238 2.50371 10.5372 3.05501 10.6258 3.65787C10.7909 4.86227 11.0971 6.04484 11.5386 7.18302C11.7141 7.63204 11.752 8.12003 11.648 8.58917C11.544 9.05831 11.3024 9.48893 10.9518 9.83002L9.29567 11.4232C11.152 14.5639 13.8552 17.1644 17.1199 18.9503L18.776 17.357C19.1306 17.0197 19.5782 16.7873 20.0659 16.6872C20.5535 16.5872 21.0608 16.6237 21.5275 16.7925C22.7106 17.2172 23.9399 17.5118 25.1919 17.6707C25.8253 17.7566 26.4038 18.0636 26.8174 18.5331C27.2309 19.0027 27.4507 19.6021 27.4348 20.2173Z" stroke="#4D4D4D" stroke-width="2" stroke-linecap="round" stroke-linejoin="round"/>
</svg>

<svg width="29" height="28" fill="none" xmlns="http://www.w3.org/2000/svg"><path d="M17.068 1.5c2.658.27 5.14 1.404 7.037 3.215C26.002 6.526 27.2 8.906 27.5 11.46M17.068 6.518a6.602 6.602 0 013.378 1.747 6.197 6.197 0 011.773 3.271m5.216 8.681v3.764c.001.35-.073.695-.219 1.015a2.5 2.5 0 01-.626.844 2.633 2.633 0 01-.928.528 2.704 2.704 0 01-1.07.122 26.467 26.467 0 01-11.254-3.851 24.968 24.968 0 01-7.824-7.527A24.226 24.226 0 011.511 4.234a2.42 2.42 0 01.125-1.027 2.49 2.49 0 01.546-.89c.244-.258.541-.463.872-.604a2.71 2.71 0 011.052-.214h3.912a2.67 2.67 0 011.726.607c.48.397.793.948.882 1.55.165 1.205.471 2.388.913 3.526.175.449.213.937.109 1.406-.104.47-.346.9-.696 1.241l-1.656 1.593c1.856 3.14 4.56 5.741 7.824 7.527l1.656-1.593c.355-.337.802-.57 1.29-.67.488-.1.995-.063 1.462.105 1.183.425 2.412.72 3.664.879a2.637 2.637 0 011.625.862c.414.47.634 1.07.618 1.684z" stroke="#4D4D4D" stroke-width="2" stroke-linecap="round" stroke-linejoin="round"/></svg>
